packages/core/src/svgs/tokens/branded/CNC.svg

<svg width="24" height="24" viewBox="0 0 24 24" fill="none" xmlns="http://www.w3.org/2000/svg">
<path d="M12.3237 2.09973L12.4486 2.34335L20.0947 16.7736C20.1815 16.0398 20.0647 15.2965 19.7575 14.6247L12.4361 2.24964L12.3863 2.16844L12.3237 2.10597V2.09973Z" fill="url(#paint0_linear_364_1718)"/>
<path d="M12.2676 2.06238L12.4301 2.43095L19.6327 18.2354C19.87 17.7732 20.0325 17.2859 20.0886 16.78L12.455 2.33724L12.3301 2.09987L12.2676 2.06238Z" fill="url(#paint1_linear_364_1718)"/>
<path d="M12.187 2.02478L12.3619 2.52453L18.3464 19.8532C18.8785 19.3992 19.3196 18.8479 19.6458 18.229L16.6472 11.6512L12.4307 2.43082L12.2682 2.05602C12.2682 2.05602 12.2182 2.04352 12.187 2.02478Z" fill="url(#paint2_linear_364_1718)"/>
<path d="M12.105 2.01236L12.2362 2.6058L16.2591 21.1527C17.0588 20.8029 17.7584 20.3656 18.3455 19.8595L12.3611 2.5246L12.1862 2.02485L12.1112 2.0061V2.01236H12.105Z" fill="url(#paint3_linear_364_1718)"/>
<path d="M12.0361 2L13.7352 21.8586C14.6409 21.7213 15.4967 21.4776 16.2651 21.1403L12.2359 2.61219L12.111 2.01873H12.0298L12.0361 2.00624V2Z" fill="url(#paint4_linear_364_1718)"/>
<path d="M10.2495 21.8649C11.4045 22.045 12.5804 22.045 13.7353 21.8649L12.0861 2.64966L12.0362 2H11.9425L11.88 2.64966L10.2495 21.8649Z" fill="url(#paint5_linear_364_1718)"/>
<path d="M7.71952 21.134C8.48164 21.4713 9.34369 21.715 10.2494 21.8525L11.2115 10.6519L11.8862 2.64966L11.9424 2L11.8612 2.00624L11.7362 2.59968L7.70703 21.134H7.71952Z" fill="url(#paint6_linear_364_1718)"/>
<path d="M5.63428 19.8409C6.21523 20.3531 6.92737 20.7966 7.72071 21.1339L11.7436 2.59955L11.8686 2.0061L11.7999 2.02485L11.625 2.5246L5.63428 19.8409Z" fill="url(#paint7_linear_364_1718)"/>
<path d="M4.34619 18.2103C4.67054 18.8287 5.10934 19.3798 5.63928 19.8345L8.63777 11.139L11.6238 2.52453L11.7924 2.02478L11.7175 2.06225L11.5551 2.43082L7.33217 11.6574L4.34619 18.2166V18.2103Z" fill="url(#paint8_linear_364_1718)"/>
<path d="M3.89697 16.7485C3.95945 17.2609 4.10312 17.748 4.34049 18.2104L11.5494 2.43084L11.7118 2.05603L11.6492 2.09976L11.5243 2.34338L6.26451 12.2946L3.89697 16.7485Z" fill="url(#paint9_linear_364_1718)"/>
<path d="M3.87744 16.305C3.87744 16.455 3.88369 16.5987 3.89619 16.7485L11.5235 2.34335L11.6484 2.09973L11.5861 2.16219L11.5486 2.22466L4.68953 13.8313L4.31472 14.4684V14.4935C4.02737 15.0619 3.87744 15.6741 3.87744 16.305Z" fill="url(#paint10_linear_364_1718)"/>
<defs>
<linearGradient id="paint0_linear_364_1718" x1="22.7581" y1="24.2391" x2="5.27377" y2="-26.2817" gradientUnits="userSpaceOnUse">
<stop stop-color="#3A3A3A"/>
<stop offset="0.5" stop-color="#1682FE"/>
</linearGradient>
<linearGradient id="paint1_linear_364_1718" x1="21.2776" y1="23.7072" x2="5.24212" y2="-39.0049" gradientUnits="userSpaceOnUse">
<stop stop-color="#3A3A3A"/>
<stop offset="0.5" stop-color="#1682FE"/>
</linearGradient>
<linearGradient id="paint2_linear_364_1718" x1="25.5518" y1="29.7574" x2="9.98735" y2="-45.9782" gradientUnits="userSpaceOnUse">
<stop stop-color="#3A3A3A"/>
<stop offset="0.5" stop-color="#1682FE"/>
</linearGradient>
<linearGradient id="paint3_linear_364_1718" x1="26.9845" y1="33.3474" x2="19.4951" y2="-26.269" gradientUnits="userSpaceOnUse">
<stop stop-color="#3A3A3A"/>
<stop offset="0.5" stop-color="#1682FE"/>
<stop offset="1" stop-color="#2DBDE1"/>
</linearGradient>
<linearGradient id="paint4_linear_364_1718" x1="27.8133" y1="29.7132" x2="23.1856" y2="-29.3414" gradientUnits="userSpaceOnUse">
<stop stop-color="#3A3A3A"/>
<stop offset="0.22" stop-color="#1682FE"/>
<stop offset="0.5" stop-color="#57F7AE"/>
</linearGradient>
<linearGradient id="paint5_linear_364_1718" x1="30.8065" y1="30.3669" x2="28.072" y2="-18.6696" gradientUnits="userSpaceOnUse">
<stop stop-color="#3A3A3A"/>
<stop offset="0.22" stop-color="#1682FE"/>
<stop offset="0.5" stop-color="#57F7AE"/>
<stop offset="1" stop-color="#FED55A"/>
</linearGradient>
<linearGradient id="paint6_linear_364_1718" x1="17.3909" y1="32.7868" x2="16.6209" y2="-11.9854" gradientUnits="userSpaceOnUse">
<stop offset="0.22" stop-color="#1682FE"/>
<stop offset="0.5" stop-color="#57F7AE"/>
<stop offset="1" stop-color="#FED55A"/>
</linearGradient>
<linearGradient id="paint7_linear_364_1718" x1="19.8793" y1="35.6642" x2="18.4608" y2="7.87289" gradientUnits="userSpaceOnUse">
<stop offset="0.4" stop-color="#1682FE"/>
<stop offset="0.7" stop-color="#57F7AE"/>
<stop offset="1" stop-color="#FED55A"/>
</linearGradient>
<linearGradient id="paint8_linear_364_1718" x1="14.3713" y1="39.0606" x2="13.7963" y2="13.1255" gradientUnits="userSpaceOnUse">
<stop offset="0.4" stop-color="#1682FE"/>
<stop offset="0.7" stop-color="#57F7AE"/>
<stop offset="1" stop-color="#FED55A"/>
</linearGradient>
<linearGradient id="paint9_linear_364_1718" x1="5.52736" y1="31.3426" x2="10.3071" y2="-11.5655" gradientUnits="userSpaceOnUse">
<stop offset="0.21" stop-color="#FCA75B"/>
<stop offset="0.52" stop-color="#FF5A5A"/>
</linearGradient>
<linearGradient id="paint10_linear_364_1718" x1="4.08359" y1="23.0767" x2="10.6427" y2="-2.61664" gradientUnits="userSpaceOnUse">
<stop offset="0.21" stop-color="#FCA75B"/>
<stop offset="0.52" stop-color="#FF5A5A"/>
</linearGradient>
</defs>
</svg>

<svg xmlns="http://www.w3.org/2000/svg" width="24" height="24" fill="none" viewBox="0 0 24 24">
    <path fill="url(#CNC__a)" d="m12.324 2.1.125.243 7.646 14.43a4.03 4.03 0 0 0-.337-2.148L12.436 2.25l-.05-.082-.062-.062z"/>
    <path fill="url(#CNC__b)" d="m12.268 2.062.162.369 7.203 15.804c.237-.462.4-.95.456-1.455L12.455 2.337 12.33 2.1z"/>
    <path fill="url(#CNC__c)" d="m12.187 2.025.175.5 5.984 17.328a5.5 5.5 0 0 0 1.3-1.624l-2.999-6.578-4.216-9.22-.163-.375s-.05-.012-.081-.031"/>
    <path fill="url(#CNC__d)" d="m12.105 2.012.131.594 4.023 18.547c.8-.35 1.5-.787 2.087-1.293L12.36 2.524l-.175-.5-.075-.019v.006z"/>
    <path fill="url(#CNC__e)" d="m12.036 2 1.7 19.859a10 10 0 0 0 2.53-.719l-4.03-18.528-.125-.593h-.081l.006-.013z"/>
    <path fill="url(#CNC__f)" d="M10.25 21.865c1.155.18 2.33.18 3.485 0L12.086 2.65l-.05-.65h-.093l-.063.65z"/>
    <path fill="url(#CNC__g)" d="M7.72 21.134a10 10 0 0 0 2.53.718l.961-11.2.675-8.002.056-.65-.08.006-.126.594-4.029 18.534z"/>
    <path fill="url(#CNC__h)" d="M5.634 19.84a7.7 7.7 0 0 0 2.087 1.294L11.744 2.6l.125-.594-.07.019-.174.5z"/>
    <path fill="url(#CNC__i)" d="M4.346 18.21c.325.619.763 1.17 1.293 1.624l2.999-8.695 2.986-8.614.168-.5-.075.037-.162.369-4.223 9.226-2.986 6.56z"/>
    <path fill="url(#CNC__j)" d="M3.897 16.749c.062.512.206.999.443 1.461l7.21-15.78.162-.374-.063.044-.125.243-5.26 9.952z"/>
    <path fill="url(#CNC__k)" d="M3.877 16.305c0 .15.007.294.02.444l7.627-14.406.124-.243-.062.062-.037.063-6.86 11.606-.374.637v.025a4 4 0 0 0-.438 1.812"/>
    <defs>
        <linearGradient id="CNC__a" x1="22.758" x2="5.274" y1="24.239" y2="-26.282" gradientUnits="userSpaceOnUse">
            <stop stop-color="#3A3A3A"/>
            <stop offset=".5" stop-color="#1682FE"/>
        </linearGradient>
        <linearGradient id="CNC__b" x1="21.278" x2="5.242" y1="23.707" y2="-39.005" gradientUnits="userSpaceOnUse">
            <stop stop-color="#3A3A3A"/>
            <stop offset=".5" stop-color="#1682FE"/>
        </linearGradient>
        <linearGradient id="CNC__c" x1="25.552" x2="9.987" y1="29.757" y2="-45.978" gradientUnits="userSpaceOnUse">
            <stop stop-color="#3A3A3A"/>
            <stop offset=".5" stop-color="#1682FE"/>
        </linearGradient>
        <linearGradient id="CNC__d" x1="26.985" x2="19.495" y1="33.347" y2="-26.269" gradientUnits="userSpaceOnUse">
            <stop stop-color="#3A3A3A"/>
            <stop offset=".5" stop-color="#1682FE"/>
            <stop offset="1" stop-color="#2DBDE1"/>
        </linearGradient>
        <linearGradient id="CNC__e" x1="27.813" x2="23.186" y1="29.713" y2="-29.341" gradientUnits="userSpaceOnUse">
            <stop stop-color="#3A3A3A"/>
            <stop offset=".22" stop-color="#1682FE"/>
            <stop offset=".5" stop-color="#57F7AE"/>
        </linearGradient>
        <linearGradient id="CNC__f" x1="30.806" x2="28.072" y1="30.367" y2="-18.67" gradientUnits="userSpaceOnUse">
            <stop stop-color="#3A3A3A"/>
            <stop offset=".22" stop-color="#1682FE"/>
            <stop offset=".5" stop-color="#57F7AE"/>
            <stop offset="1" stop-color="#FED55A"/>
        </linearGradient>
        <linearGradient id="CNC__g" x1="17.391" x2="16.621" y1="32.787" y2="-11.985" gradientUnits="userSpaceOnUse">
            <stop offset=".22" stop-color="#1682FE"/>
            <stop offset=".5" stop-color="#57F7AE"/>
            <stop offset="1" stop-color="#FED55A"/>
        </linearGradient>
        <linearGradient id="CNC__h" x1="19.879" x2="18.461" y1="35.664" y2="7.873" gradientUnits="userSpaceOnUse">
            <stop offset=".4" stop-color="#1682FE"/>
            <stop offset=".7" stop-color="#57F7AE"/>
            <stop offset="1" stop-color="#FED55A"/>
        </linearGradient>
        <linearGradient id="CNC__i" x1="14.371" x2="13.796" y1="39.061" y2="13.126" gradientUnits="userSpaceOnUse">
            <stop offset=".4" stop-color="#1682FE"/>
            <stop offset=".7" stop-color="#57F7AE"/>
            <stop offset="1" stop-color="#FED55A"/>
        </linearGradient>
        <linearGradient id="CNC__j" x1="5.527" x2="10.307" y1="31.343" y2="-11.566" gradientUnits="userSpaceOnUse">
            <stop offset=".21" stop-color="#FCA75B"/>
            <stop offset=".52" stop-color="#FF5A5A"/>
        </linearGradient>
        <linearGradient id="CNC__k" x1="4.084" x2="10.643" y1="23.077" y2="-2.617" gradientUnits="userSpaceOnUse">
            <stop offset=".21" stop-color="#FCA75B"/>
            <stop offset=".52" stop-color="#FF5A5A"/>
        </linearGradient>
    </defs>
</svg>
